svgs/duotone/money-bills.svg

<svg xmlns="http://www.w3.org/2000/svg" viewBox="0 0 640 512"><!-- Font Awesome Pro 6.0.0-alpha2 by @fontawesome - https://fontawesome.com License - https://fontawesome.com/license (Commercial License) --><defs><style>.fa-secondary{opacity:.4}</style></defs><path d="M528 80H208C208 115.375 179.375 144 144 144V272C179.375 272 208 300.625 208 336H528C528 300.625 556.625 272 592 272V144C556.625 144 528 115.375 528 80ZM367.984 304C323.801 304 287.984 261.018 287.984 208C287.984 154.98 323.801 112 367.984 112S447.984 154.98 447.984 208C447.984 261.018 412.168 304 367.984 304ZM48 400V96C21.49 96 0 117.492 0 144V416C0 451.344 28.654 480 64 480H496C522.51 480 544 458.508 544 432H80C62.326 432 48 417.672 48 400Z" class="fa-secondary"/><path d="M592 32H144C117.492 32 96 53.492 96 80V336C96 362.508 117.492 384 144 384H592C618.512 384 640 362.508 640 336V80C640 53.492 618.512 32 592 32ZM592 272C556.625 272 528 300.625 528 336H208C208 300.625 179.375 272 144 272V144C179.375 144 208 115.375 208 80H528C528 115.375 556.625 144 592 144V272Z" class="fa-primary"/></svg>

<svg xmlns="http://www.w3.org/2000/svg" viewBox="0 0 640 512"><!--! Font Awesome Pro 6.0.0-alpha3 by @fontawesome - https://fontawesome.com License - https://fontawesome.com/license (Commercial License) --><defs><style>.fa-secondary{opacity:.4}</style></defs><path class="fa-primary" d="M592 32h-448C117.5 32 96 53.49 96 80v256C96 362.5 117.5 384 144 384h448c26.51 0 48-21.49 48-48v-256C640 53.49 618.5 32 592 32zM592 272c-35.38 0-64 28.62-64 64h-320c0-35.38-28.62-64-64-64v-128c35.38 0 64-28.62 64-64h320c0 35.38 28.62 64 64 64V272z"/><path class="fa-secondary" d="M528 80h-320c0 35.38-28.62 64-64 64v128c35.38 0 64 28.62 64 64h320c0-35.38 28.62-64 64-64v-128C556.6 144 528 115.4 528 80zM367.1 304c-44.18 0-80-42.98-80-96c0-53.02 35.82-96 80-96s80 42.98 80 96C447.1 261 412.2 304 367.1 304zM512 480H120C53.83 480 0 426.2 0 360v-240C0 106.8 10.75 96 24 96S48 106.8 48 120v240c0 39.7 32.3 72 72 72H512c13.25 0 24 10.75 24 24S525.3 480 512 480z"/></svg>
